art/logos/dreamcast.svg

<?xml version="1.0" encoding="UTF-8" standalone="no"?>
<!-- Generator: Adobe Illustrator 13.0.0, SVG Export Plug-In . SVG Version: 6.00 Build 14948)  -->

<svg
   xmlns:dc="http://purl.org/dc/elements/1.1/"
   xmlns:cc="http://creativecommons.org/ns#"
   xmlns:rdf="http://www.w3.org/1999/02/22-rdf-syntax-ns#"
   xmlns:svg="http://www.w3.org/2000/svg"
   xmlns="http://www.w3.org/2000/svg"
   xmlns:sodipodi="http://sodipodi.sourceforge.net/DTD/sodipodi-0.dtd"
   xmlns:inkscape="http://www.inkscape.org/namespaces/inkscape"
   version="1.2"
   id="Layer_1"
   x="0px"
   y="0px"
   width="566.93px"
   height="94.787px"
   viewBox="0 0 566.93 94.787"
   xml:space="preserve"
   sodipodi:docname="dreamcast.svg"
   inkscape:version="0.92.4 (5da689c313, 2019-01-14)"><metadata
   id="metadata31"><rdf:RDF><cc:Work
       rdf:about=""><dc:format>image/svg+xml</dc:format><dc:type
         rdf:resource="http://purl.org/dc/dcmitype/StillImage" /></cc:Work></rdf:RDF></metadata><defs
   id="defs29" /><sodipodi:namedview
   pagecolor="#ffffff"
   bordercolor="#666666"
   borderopacity="1"
   objecttolerance="10"
   gridtolerance="10"
   guidetolerance="10"
   inkscape:pageopacity="0"
   inkscape:pageshadow="2"
   inkscape:window-width="640"
   inkscape:window-height="480"
   id="namedview27"
   showgrid="false"
   inkscape:zoom="5.037659"
   inkscape:cx="152.93556"
   inkscape:cy="19.491052"
   inkscape:current-layer="Layer_1" />
<g
   id="g22">
	<polygon
   fill="#666666"
   points="556.359,78.931 554.074,78.931 554.074,78.142 559.518,78.142 559.518,78.931 557.252,78.931    557.252,85.077 556.359,85.077  "
   id="polygon2" />
	<polygon
   fill="#666666"
   points="563.211,85.077 561.318,79.442 561.318,85.077 560.404,85.077 560.404,78.142 561.668,78.142    563.668,84.038 565.666,78.142 566.93,78.142 566.93,85.077 566.02,85.077 566.02,79.442 564.125,85.077  "
   id="polygon4" />
	<path
   fill="#666666"
   d="M122.813,19.344c0-2.409-0.458-5.529-1.522-6.841c6.973,0,22.039,0.046,28.497,0.046   c14.859,0,37.277,8.247,37.277,36.052c0,20.635-15.826,36.008-37.277,36.008c-4.705,0-22.67-0.058-29.044-0.058   c1.306-2.411,2.069-5.685,2.069-8.269V19.344L122.813,19.344z M133.5,77.543c6.858,0.892,13.189,1.165,18.917,0.347   c5.542-0.793,24.165-4.805,24.049-29.529c-0.109-23.431-14.581-28.788-25.731-29.443c-5.819-0.343-11.436-0.123-17.236,0.881   L133.5,77.543L133.5,77.543z"
   id="path6" />
	<path
   fill="#666666"
   d="M193.187,34.642l10.676-1.667c0,2.186,0,8.596,0,9.4c2.738-6.767,11.259-12.205,23.366-7.493l-2.838,7.433   c-11.082-5.26-20.528-0.646-20.528,11.661V79.37c0,1.209,0.264,3.648,0.985,5.213h-11.089c1.12-1.381,1.64-4.004,1.64-5.213V42.74   C195.396,40.083,194.854,35.97,193.187,34.642L193.187,34.642z"
   id="path8" />
	<path
   fill="#666666"
   d="M530.719,39.738c0,0.693,0,30.229,0,32.434c0,10.183,7.019,12.905,12.219,12.905   c2.197,0.107,5.313-0.406,7.488-0.889l1.338-6.285c-2.535,0.97-5.481,1.197-7.25,1.197c-3.26,0-5.617-2.164-5.617-5.549   c0-3.037-0.077-32.809,0-33.761h-0.034c0.432,0,7.196-0.024,7.879,0c2.217,0.078,3.92,0.213,5.387,0.803l0.008-5.919   c0,0-12.985-0.017-13.239-0.017l0.053-15.181l-9.838,2.719c1.356,1.269,1.797,4.982,1.797,7.431c0,0-0.008,4.536-0.008,5.083   c-0.441,0-5.438,0.025-6.265,0.025v5.001C525.51,39.735,530.719,39.738,530.719,39.738L530.719,39.738z"
   id="path10" />
	<path
   fill="#666666"
   d="M488.193,74.036c4.229,3.021,10.866,5.703,15.733,5.703c6.752,0,11.588-3.285,11.588-9.469   c0-11.414-26.022-9.522-26.022-24.004c0-9.792,8.756-13.476,17.1-13.476c2.683,0,8.806,0.582,12.697,2.088l-0.031,6.688   c-3.459-2.955-8.735-3.669-12.213-3.669c-5.521,0-9.668,2.74-9.668,8.112c0,7.887,26.002,7.43,26.002,23.621   c0,10.471-9.07,15.354-19.055,15.354c-4.865,0-9.939-0.862-14.16-2.071L488.193,74.036L488.193,74.036z"
   id="path12" />
	<path
   fill="#666666"
   d="M331.107,39.839c0-0.592,0.021-5.895,0.021-6.574l-10.809,1.671c1.303,1.365,2.303,5.623,2.303,8.667   v35.414c0,1.209-0.519,4.143-1.641,5.521h11.784c-1.118-1.381-1.637-4.313-1.637-5.521V52.372c0-9.75,6.031-13.164,12.035-13.164   c5.434,0,10.344,2.352,10.344,13.164v26.646c0,1.209-0.52,4.142-1.637,5.521h11.428c-1.123-1.381-1.637-4.313-1.637-5.521V52.372   c0-10.811,6.678-13.164,12.123-13.164c5.43,0,11.111,3.411,11.111,13.164v26.646c0,1.209-0.515,4.142-1.642,5.521h11.008   c-1.127-1.381-1.639-4.313-1.639-5.521V47.312c0-5.404-5.516-14.063-18.391-14.063c-7.492,0-11.818,3.333-15.103,6.2   c-2.793-3.26-7.34-6.317-14.647-6.317C337.365,33.129,333.162,37.302,331.107,39.839L331.107,39.839z"
   id="path14" />
	<path
   fill="#666666"
   d="M305.621,56.453c-1.543,1.453-4.773,2.579-8.107,3.019c-8.762,1.147-16.352,2.604-16.352,11.137   c0,5.063,5.52,9.048,9.891,9.048c11.578,0,14.57-8.353,14.57-14.935v-8.269H305.621L305.621,56.453z M278.269,35.57   c4.419-1.771,11.549-2.583,16.021-2.583c11.42,0,19.008,5.705,19.008,18.95v21.972c0,4.069,0.062,7.924,1.512,10.631h-9.178   l-0.332-5.78c-3.473,4.487-7.627,6.495-14.676,6.495c-13.91,0-16.946-9.503-16.946-14.069c0-16.297,15.512-16.485,22.249-17.447   c3.728-0.526,8.521-1.58,9.244-5.074c1.188-5.78-2.942-10.114-11.385-10.114c-6.197,0-11.273,1.885-15.514,4.422L278.269,35.57   L278.269,35.57z M475.572,56.453c-1.541,1.453-4.773,2.579-8.109,3.019c-8.76,1.147-16.348,2.604-16.348,11.137   c0,5.063,5.516,9.048,9.887,9.048c11.576,0,14.57-8.353,14.57-14.935V56.453L475.572,56.453z M448.223,35.57   c4.418-1.771,11.556-2.583,16.023-2.583c11.414,0,19.002,5.705,19.002,18.95v21.972c0,4.069-0.887,7.841,1.508,10.631h-9.176   l-0.334-5.78c-3.478,4.487-7.625,6.495-14.674,6.495c-13.902,0-16.943-9.503-16.943-14.069c0-16.297,15.512-16.485,22.246-17.447   c3.729-0.526,8.527-1.58,9.242-5.074c1.19-5.78-2.941-10.114-11.385-10.114c-6.195,0-11.271,1.885-15.513,4.422v-7.4L448.223,35.57   L448.223,35.57z"
   id="path16" />
	<path
   fill="#666666"
   d="M438.451,42.308c-3.443-2.012-8.879-3.605-12.67-3.605c-13.312,0-19.412,8.185-19.412,19.976   c0,11.68,5.965,20.625,18.983,20.625c4.462,0,10.535-2.006,15.25-4.902l-1.918,8.593c-4.799,1.428-8.842,2.108-14.194,2.108   c-18.295,0-26.871-12.977-26.871-26.479c0-14.921,11.504-25.417,27.072-25.417c6.805,0,11.771,1.668,13.776,2.238L438.451,42.308   L438.451,42.308z"
   id="path18" />
	<path
   fill="#666666"
   d="M233.646,59.304c0.008-1.234,0.172-2.41,0.31-3.55h35.401c0-12.169-6.087-22.608-20.505-22.608   c-14.965,0-23.85,11.703-23.85,26.63c0,13.498,9.891,25.56,26.832,25.56c5.356,0,9.834-1.319,14.669-3.012l1.701-8.63   c-4.135,3.404-10.817,5.418-16.849,5.418C240.514,79.112,233.599,71.263,233.646,59.304L233.646,59.304z M235.077,50.356   c1.149-5.92,6.628-11.952,13.184-11.952c10.018,0,12.917,7.817,12.917,11.952C261.176,50.356,235.077,50.375,235.077,50.356   L235.077,50.356z"
   id="path20" />
</g>
<path
   fill="#CF3311"
   d="M65.058,1.288c3.969,0.596,8.026,1.984,10.141,2.63C79.46,5.22,86.376,9.269,88.82,11.209  c1.157,0.918,3.585,3.323,4.528,4.533c0.917,1.179,2.667,3.733,3.783,5.308c1.781,2.597,3.874,6.466,5.648,10.025  c1.984,3.978,2.12,5.13,2.721,8.455l1.311,5.862c0.123,1.014,0.227,4.731-1.957,5.251c-2.181,0.521-4.199-0.483-5.15-1.955  c-1.316-2.036-1.133-4.926-2.623-8.234c-1.161-2.674-1.666-6.561-3.521-9.355l-1.453-2.458c-2.573-3.96-5.253-7.103-6.851-9.153  c-1.411-1.723-4.04-4.064-6.531-5.729c-2.306-1.398-6.032-2.993-8.719-3.813c-0.856-0.279-4.524-1.357-6.8-1.66  c-3.093-0.347-5.126-0.836-8.063-1.043c-3.63-0.256-5.367-0.578-10.074-0.028c-1.783,0.484-4.605,0.676-7.147,1.647  c-2.053,0.837-4.906,2.189-7.703,3.832c-3.012,1.651-7.578,5.026-10.609,7.907c-3.054,3.263-4.582,5.014-6.687,9.15  c-0.931,2.046-2.736,5.213-3.464,7.447c-0.497,2.269-1.443,6.5-1.286,8.556c0.073,3.681-0.25,4.44,0.027,7.45  c0.01,2.71,0.899,4.588,1.27,6.806c0.315,1.53,1.787,6.828,2.694,8.062c4.129,8.9,9.675,12.755,15.856,15.537  c1.742,0.888,7.191,2.346,8.767,2.763c2.69,0.485,6.227,0.81,9.633,0.875c3.583,0.069,8.522-0.414,11.517-1.519  c3.244-1.193,6.997-2.891,6.953-2.84c1.504-0.832,3.802-2.187,4.516-2.781c1.383-0.885,2.217-1.228,3.034-2.08  c1.184-1.033,1.898-1.629,2.794-2.91c0.497-0.721,1.292-1.827,2.059-2.805c0.83-1.36,1.307-2.793,2.116-4.564  c0.968-2.623,0.818-2.496,1.003-5.277c0.175-0.807-0.02-3.519-0.164-3.979c-0.437-2.502-0.283-4.709-0.856-7.139  c-0.771-3.287-1.417-5.747-2.402-8.899c-0.929-3.549-3.656-6.838-5.702-9.188c-1.268-1.457-5.201-4.895-10.658-7.043  c-1.538-0.517-4.05-1.103-5.647-1.395c-3.41-0.356-3.965-0.127-7.229,0.111c-1.124,0.196-3.731,0.729-4.692,1.066  c-2.804,0.985-3.835,1.611-6.702,3.366c-1.334,0.775-2.34,1.368-3.705,2.646c-1.089,1.008-1.868,2.72-2.748,3.725  c-1.209,1.644-2.554,3.836-3.456,6.201c-0.978,2.353-1.293,5.664-1.143,7.795c0,1.621,0.441,4.598,0.616,5.246  c0.176,0.65,0.616,2.67,0.71,3.076c0.097,0.405,1.145,2.541,1.292,2.853c0.593,1.261,1.726,3.069,3.633,4.919  c1.411,1.54,4.133,3.05,6.174,3.635c1.828,1.006,4.912,1.174,6.62,1.178c0.839-0.053,2.984-0.184,4.103-0.451  c2.271-0.545,2.688-0.56,5.028-1.575c2.1-0.974,3.523-1.325,4.986-2.403c0,0,2.007-1.572,2.919-2.724  c0.481-0.604,1.306-3.5,1.161-5.293c-0.069-2.453,0.289-3.845-0.214-5.863c-0.5-2.019-1.354-4.358-2.281-5.8  c-0.939-1.46-2.956-2.882-5.251-4.017c-1.288-0.636-4.333-1.224-5.627-1.376c-2.453-0.292-4.506,0.823-5.753,2.097  c-1.082,1.236-3.22,3.803-2.369,6.457c0.771,2.4,1.703,4.959,5.304,4.77c2.473,0.516,5.33-0.229,6.283,0.207  c1.413,0.803,1.955,2.573,1.443,3.811c-0.359,2.383-2.643,2.668-5.076,2.852c-2.18,0.365-7.715-0.702-8.93-1.613  c-0.816-0.484-2.067-1.647-2.946-2.435c-0.633-0.568-1.346-1.828-1.837-2.734c-0.598-1.114-0.903-1.933-1.057-2.657  c-0.185-0.86-0.562-2.506-0.419-4.149c0.099-1.108,0.394-1.582,0.688-3.203c0.589-1.84,1.32-3.239,2.498-4.834  c1.532-1.556,3.479-3.408,5.38-4.269c1.676-0.886,4.613-1.211,7.268-1.056c2.156,0.206,4.702,0.469,6.389,1.033  c2.884,1.03,3.708,1.236,6.077,2.73c1.999,1.237,4.012,3.516,5.136,5.402c2.39,4.89,3.76,10.328,2.764,17.653  c-0.081,1.236-0.466,2.443-1.237,4.084c-0.714,1.511-1.96,3.35-3.838,4.732c-0.754,0.699-1.946,1.561-2.915,2.063  c-1.375,0.834-2.299,1.269-3.733,1.989c-1.26,0.594-2.73,1.27-4.646,1.802c-2.076,0.821-3.67,0.854-6.281,1.243  c-2.568,0.646-9.602,0.187-13.792-1.662c-2.857-1.203-6.064-3.321-8.505-5.904c-1.354-1.422-2.681-3.996-3.069-4.523  c-1.94-3.729-2.319-7.233-2.631-7.973c-0.422-1-0.631-3.244-0.916-4.779c-0.319-1.724-0.122-8.941,1.617-13.573  c0.981-1.845,1.555-3.49,2.217-4.353c1.193-1.696,1.769-2.755,2.782-3.957c1.528-1.852,2.64-3.364,4.127-4.431  c3.793-3.083,6.959-4.711,11.245-6.746c5.324-2.168,6.923-1.72,11.964-1.639c2.267,0.02,5.566,0.733,7.189,1.027  c3.012,0.401,4.738,1.127,6.773,1.695c2.178,0.608,3.436,1.58,5.226,2.659c1.47,0.949,3.202,2.251,4.345,3.308  c2.927,2.146,4.337,4.401,6.131,7.171c0.327,0.464,2.455,5.002,2.794,6.266c0.158,0.633,0.638,2.449,0.949,3.511  c0.396,1.685,0.591,3.176,1.036,5.078c0.396,1.957,1.072,5.652,1.364,9.107c0.495,2.965-0.296,9.016-0.76,10.871  c-1.035,3.463-2.85,7.69-6.428,11.762c-1.519,1.804-3.135,3.199-5.003,4.717c-1.427,1.189-2.653,1.886-4.861,3.202  c-2.996,1.788-5.276,2.931-9.477,4.573c-1.71,0.549-3.866,1.271-6.188,1.75C51,94.683,46.376,95.08,41.33,94.481  c-5.047-0.602-10.102-2.023-13.089-2.939c-1.649-0.618-4.841-1.955-6.178-2.68c-0.872-0.44-3.793-2.438-4.288-2.918  c-2-1.237-6.479-5.449-9.371-9.375c-0.633-1.217-2.911-4.854-3.406-6.448c-1.313-2.697-2.229-5.96-2.766-7.354  c-0.568-3.254-1.528-5.348-1.902-8.611c0.042-0.768-0.154-2.577-0.33-3.578c0.254-2.235-0.086-4.339,0.358-6.773  c0.39-2.053,0.904-2.91,1.028-4.766c0.121-0.794,1.141-3.182,1.415-4.245c0.826-1.75,1.03-3.191,2.107-5.147  c1.549-3.048,3.172-6.554,5.662-9.617c0.712-0.95,2.729-3.228,3.416-4.017c1.625-1.625,2.578-1.881,4.421-3.51  c0.19-0.12,1.409-1.508,2.685-1.985c2.111-1.632,3.937-2.23,5.948-3.715c4.029-2.008,5.497-2.686,9.497-4.351  c2.313-0.825,5.534-1.28,6.694-1.73c2.209-0.137,4.451-0.841,6.773-0.702c2.607-0.024,5.234,0.162,7.855,0.4  C59.625,0.522,61.931,0.608,65.058,1.288L65.058,1.288z"
   id="path24"
   style="fill:#4365a2;fill-opacity:0.94117647" />
</svg>

<?xml version="1.0" encoding="UTF-8" standalone="no"?>
<!DOCTYPE svg PUBLIC "-//W3C//DTD SVG 1.1//EN" "http://www.w3.org/Graphics/SVG/1.1/DTD/svg11.dtd">
<svg width="100%" height="100%" viewBox="0 0 567 95" version="1.1" xmlns="http://www.w3.org/2000/svg" xmlns:xlink="http://www.w3.org/1999/xlink" xml:space="preserve" xmlns:serif="http://www.serif.com/" style="fill-rule:evenodd;clip-rule:evenodd;stroke-linejoin:round;stroke-miterlimit:2;">
    <g id="g22">
        <g>
            <path id="polygon2" d="M556.359,78.931L554.074,78.931L554.074,78.142L559.518,78.142L559.518,78.931L557.252,78.931L557.252,85.077L556.359,85.077L556.359,78.931Z" style="fill:rgb(226,226,226);fill-rule:nonzero;"/>
            <path id="polygon4" d="M563.211,85.077L561.318,79.442L561.318,85.077L560.404,85.077L560.404,78.142L561.668,78.142L563.668,84.038L565.666,78.142L566.93,78.142L566.93,85.077L566.02,85.077L566.02,79.442L564.125,85.077L563.211,85.077Z" style="fill:rgb(226,226,226);fill-rule:nonzero;"/>
            <path id="path6" d="M122.813,19.344C122.813,16.935 122.355,13.815 121.291,12.503C128.264,12.503 143.33,12.549 149.788,12.549C164.647,12.549 187.065,20.796 187.065,48.601C187.065,69.236 171.239,84.609 149.788,84.609C145.083,84.609 127.118,84.551 120.744,84.551C122.05,82.14 122.813,78.866 122.813,76.282L122.813,19.344ZM133.5,77.543C140.358,78.435 146.689,78.708 152.417,77.89C157.959,77.097 176.582,73.085 176.466,48.361C176.357,24.93 161.885,19.573 150.735,18.918C144.916,18.575 139.299,18.795 133.499,19.799L133.5,77.543Z" style="fill:rgb(226,226,226);fill-rule:nonzero;"/>
            <path id="path8" d="M193.187,34.642L203.863,32.975L203.863,42.375C206.601,35.608 215.122,30.17 227.229,34.882L224.391,42.315C213.309,37.055 203.863,41.669 203.863,53.976L203.863,79.37C203.863,80.579 204.127,83.018 204.848,84.583L193.759,84.583C194.879,83.202 195.399,80.579 195.399,79.37L195.399,42.74C195.396,40.083 194.854,35.97 193.187,34.642Z" style="fill:rgb(226,226,226);fill-rule:nonzero;"/>
            <path id="path10" d="M530.719,39.738L530.719,72.172C530.719,82.355 537.738,85.077 542.938,85.077C545.135,85.184 548.251,84.671 550.426,84.188L551.764,77.903C549.229,78.873 546.283,79.1 544.514,79.1C541.254,79.1 538.897,76.936 538.897,73.551C538.897,70.514 538.82,40.742 538.897,39.79L538.863,39.79C539.295,39.79 546.059,39.766 546.742,39.79C548.959,39.868 550.662,40.003 552.129,40.593L552.137,34.674C552.137,34.674 539.152,34.657 538.898,34.657L538.951,19.476L529.113,22.195C530.469,23.464 530.91,27.177 530.91,29.626C530.91,29.626 530.902,34.162 530.902,34.709C530.461,34.709 525.464,34.734 524.637,34.734L524.637,39.735C525.51,39.735 530.719,39.738 530.719,39.738Z" style="fill:rgb(226,226,226);fill-rule:nonzero;"/>
            <path id="path12" d="M488.193,74.036C492.422,77.057 499.059,79.739 503.926,79.739C510.678,79.739 515.514,76.454 515.514,70.27C515.514,58.856 489.492,60.748 489.492,46.266C489.492,36.474 498.248,32.79 506.592,32.79C509.275,32.79 515.398,33.372 519.289,34.878L519.258,41.566C515.799,38.611 510.523,37.897 507.045,37.897C501.524,37.897 497.377,40.637 497.377,46.009C497.377,53.896 523.379,53.439 523.379,69.63C523.379,80.101 514.309,84.984 504.324,84.984C499.459,84.984 494.385,84.122 490.164,82.913L488.193,74.036Z" style="fill:rgb(226,226,226);fill-rule:nonzero;"/>
            <path id="path14" d="M331.107,39.839C331.107,39.247 331.128,33.944 331.128,33.265L320.319,34.936C321.622,36.301 322.622,40.559 322.622,43.603L322.622,79.017C322.622,80.226 322.103,83.16 320.981,84.538L332.765,84.538C331.647,83.157 331.128,80.225 331.128,79.017L331.128,52.372C331.128,42.622 337.159,39.208 343.163,39.208C348.597,39.208 353.507,41.56 353.507,52.372L353.507,79.018C353.507,80.227 352.987,83.16 351.87,84.539L363.298,84.539C362.175,83.158 361.661,80.226 361.661,79.018L361.661,52.372C361.661,41.561 368.339,39.208 373.784,39.208C379.214,39.208 384.895,42.619 384.895,52.372L384.895,79.018C384.895,80.227 384.38,83.16 383.253,84.539L394.261,84.539C393.134,83.158 392.622,80.226 392.622,79.018L392.622,47.312C392.622,41.908 387.106,33.249 374.231,33.249C366.739,33.249 362.413,36.582 359.128,39.449C356.335,36.189 351.788,33.132 344.481,33.132C337.365,33.129 333.162,37.302 331.107,39.839Z" style="fill:rgb(226,226,226);fill-rule:nonzero;"/>
            <path id="path16" d="M305.621,56.453C304.078,57.906 300.848,59.032 297.514,59.472C288.752,60.619 281.162,62.076 281.162,70.609C281.162,75.672 286.682,79.657 291.053,79.657C302.631,79.657 305.623,71.304 305.623,64.722L305.623,56.453L305.621,56.453ZM278.269,35.57C282.688,33.799 289.818,32.987 294.29,32.987C305.71,32.987 313.298,38.692 313.298,51.937L313.298,73.909C313.298,77.978 313.36,81.833 314.81,84.54L305.632,84.54L305.3,78.76C301.827,83.247 297.673,85.255 290.624,85.255C276.714,85.255 273.678,75.752 273.678,71.186C273.678,54.889 289.19,54.701 295.927,53.739C299.655,53.213 304.448,52.159 305.171,48.665C306.359,42.885 302.229,38.551 293.786,38.551C287.589,38.551 282.513,40.436 278.272,42.973L278.269,35.57ZM475.572,56.453C474.031,57.906 470.799,59.032 467.463,59.472C458.703,60.619 451.115,62.076 451.115,70.609C451.115,75.672 456.631,79.657 461.002,79.657C472.578,79.657 475.572,71.304 475.572,64.722L475.572,56.453ZM448.223,35.57C452.641,33.799 459.779,32.987 464.246,32.987C475.66,32.987 483.248,38.692 483.248,51.937L483.248,73.909C483.248,77.978 482.361,81.75 484.756,84.54L475.58,84.54L475.246,78.76C471.768,83.247 467.621,85.255 460.572,85.255C446.67,85.255 443.629,75.752 443.629,71.186C443.629,54.889 459.141,54.701 465.875,53.739C469.604,53.213 474.402,52.159 475.117,48.665C476.307,42.885 472.176,38.551 463.732,38.551C457.537,38.551 452.461,40.436 448.219,42.973L448.219,35.573L448.223,35.57Z" style="fill:rgb(226,226,226);fill-rule:nonzero;"/>
            <path id="path18" d="M438.451,42.308C435.008,40.296 429.572,38.703 425.781,38.703C412.469,38.703 406.369,46.888 406.369,58.679C406.369,70.359 412.334,79.304 425.352,79.304C429.814,79.304 435.887,77.298 440.602,74.402L438.684,82.995C433.885,84.423 429.842,85.103 424.49,85.103C406.195,85.103 397.619,72.126 397.619,58.624C397.619,43.703 409.123,33.207 424.691,33.207C431.496,33.207 436.462,34.875 438.467,35.445L438.451,42.308Z" style="fill:rgb(226,226,226);fill-rule:nonzero;"/>
            <path id="path20" d="M233.646,59.304C233.654,58.07 233.818,56.894 233.956,55.754L269.357,55.754C269.357,43.585 263.27,33.146 248.852,33.146C233.887,33.146 225.002,44.849 225.002,59.776C225.002,73.274 234.893,85.336 251.834,85.336C257.19,85.336 261.668,84.017 266.503,82.324L268.204,73.694C264.069,77.098 257.387,79.112 251.355,79.112C240.514,79.112 233.599,71.263 233.646,59.304ZM235.077,50.356C236.226,44.436 241.705,38.404 248.261,38.404C258.279,38.404 261.178,46.221 261.178,50.356C261.176,50.356 235.077,50.375 235.077,50.356Z" style="fill:rgb(226,226,226);fill-rule:nonzero;"/>
        </g>
    </g>
    <path id="path24" d="M65.058,1.288C69.027,1.884 73.084,3.272 75.199,3.918C79.46,5.22 86.376,9.269 88.82,11.209C89.977,12.127 92.405,14.532 93.348,15.742C94.265,16.921 96.015,19.475 97.131,21.05C98.912,23.647 101.005,27.516 102.779,31.075C104.763,35.053 104.899,36.205 105.5,39.53L106.811,45.392C106.934,46.406 107.038,50.123 104.854,50.643C102.673,51.164 100.655,50.16 99.704,48.688C98.388,46.652 98.571,43.762 97.081,40.454C95.92,37.78 95.415,33.893 93.56,31.099L92.107,28.641C89.534,24.681 86.854,21.538 85.256,19.488C83.845,17.765 81.216,15.424 78.725,13.759C76.419,12.361 72.693,10.766 70.006,9.946C69.15,9.667 65.482,8.589 63.206,8.286C60.113,7.939 58.08,7.45 55.143,7.243C51.513,6.987 49.776,6.665 45.069,7.215C43.286,7.699 40.464,7.891 37.922,8.862C35.869,9.699 33.016,11.051 30.219,12.694C27.207,14.345 22.641,17.72 19.61,20.601C16.556,23.864 15.028,25.615 12.923,29.751C11.992,31.797 10.187,34.964 9.459,37.198C8.962,39.467 8.016,43.698 8.173,45.754C8.246,49.435 7.923,50.194 8.2,53.204C8.21,55.914 9.099,57.792 9.47,60.01C9.785,61.54 11.257,66.838 12.164,68.072C16.293,76.972 21.839,80.827 28.02,83.609C29.762,84.497 35.211,85.955 36.787,86.372C39.477,86.857 43.014,87.182 46.42,87.247C50.003,87.316 54.942,86.833 57.937,85.728C61.181,84.535 64.934,82.837 64.89,82.888C66.394,82.056 68.692,80.701 69.406,80.107C70.789,79.222 71.623,78.879 72.44,78.027C73.624,76.994 74.338,76.398 75.234,75.117C75.731,74.396 76.526,73.29 77.293,72.312C78.123,70.952 78.6,69.519 79.409,67.748C80.377,65.125 80.227,65.252 80.412,62.471C80.587,61.664 80.392,58.952 80.248,58.492C79.811,55.99 79.965,53.783 79.392,51.353C78.621,48.066 77.975,45.606 76.99,42.454C76.061,38.905 73.334,35.616 71.288,33.266C70.02,31.809 66.087,28.371 60.63,26.223C59.092,25.706 56.58,25.12 54.983,24.828C51.573,24.472 51.018,24.701 47.754,24.939C46.63,25.135 44.023,25.668 43.062,26.005C40.258,26.99 39.227,27.616 36.36,29.371C35.026,30.146 34.02,30.739 32.655,32.017C31.566,33.025 30.787,34.737 29.907,35.742C28.698,37.386 27.353,39.578 26.451,41.943C25.473,44.296 25.158,47.607 25.308,49.738C25.308,51.359 25.749,54.336 25.924,54.984C26.1,55.634 26.54,57.654 26.634,58.06C26.731,58.465 27.779,60.601 27.926,60.913C28.519,62.174 29.652,63.982 31.559,65.832C32.97,67.372 35.692,68.882 37.733,69.467C39.561,70.473 42.645,70.641 44.353,70.645C45.192,70.592 47.337,70.461 48.456,70.194C50.727,69.649 51.144,69.634 53.484,68.619C55.584,67.645 57.007,67.294 58.47,66.216C58.47,66.216 60.477,64.644 61.389,63.492C61.87,62.888 62.695,59.992 62.55,58.199C62.481,55.746 62.839,54.354 62.336,52.336C61.836,50.317 60.982,47.978 60.055,46.536C59.116,45.076 57.099,43.654 54.804,42.519C53.516,41.883 50.471,41.295 49.177,41.143C46.724,40.851 44.671,41.966 43.424,43.24C42.342,44.476 40.204,47.043 41.055,49.697C41.826,52.097 42.758,54.656 46.359,54.467C48.832,54.983 51.689,54.238 52.642,54.674C54.055,55.477 54.597,57.247 54.085,58.485C53.726,60.868 51.442,61.153 49.009,61.337C46.829,61.702 41.294,60.635 40.079,59.724C39.263,59.24 38.012,58.077 37.133,57.289C36.5,56.721 35.787,55.461 35.296,54.555C34.698,53.441 34.393,52.622 34.239,51.898C34.054,51.038 33.677,49.392 33.82,47.749C33.919,46.641 34.214,46.167 34.508,44.546C35.097,42.706 35.828,41.307 37.006,39.712C38.538,38.156 40.485,36.304 42.386,35.443C44.062,34.557 46.999,34.232 49.654,34.387C51.81,34.593 54.356,34.856 56.043,35.42C58.927,36.45 59.751,36.656 62.12,38.15C64.119,39.387 66.132,41.666 67.256,43.552C69.646,48.442 71.016,53.88 70.02,61.205C69.939,62.441 69.554,63.648 68.783,65.289C68.069,66.8 66.823,68.639 64.945,70.021C64.191,70.72 62.999,71.582 62.03,72.084C60.655,72.918 59.731,73.353 58.297,74.073C57.037,74.667 55.567,75.343 53.651,75.875C51.575,76.696 49.981,76.729 47.37,77.118C44.802,77.764 37.768,77.305 33.578,75.456C30.721,74.253 27.514,72.135 25.073,69.552C23.719,68.13 22.392,65.556 22.004,65.029C20.064,61.3 19.685,57.796 19.373,57.056C18.951,56.056 18.742,53.812 18.457,52.277C18.138,50.553 18.335,43.336 20.074,38.704C21.055,36.859 21.629,35.214 22.291,34.351C23.484,32.655 24.06,31.596 25.073,30.394C26.601,28.542 27.713,27.03 29.2,25.963C32.993,22.88 36.159,21.252 40.445,19.217C45.769,17.049 47.368,17.497 52.409,17.578C54.676,17.598 57.975,18.311 59.598,18.605C62.61,19.006 64.336,19.732 66.371,20.3C68.549,20.908 69.807,21.88 71.597,22.959C73.067,23.908 74.799,25.21 75.942,26.267C78.869,28.413 80.279,30.668 82.073,33.438C82.4,33.902 84.528,38.44 84.867,39.704C85.025,40.337 85.505,42.153 85.816,43.215C86.212,44.9 86.407,46.391 86.852,48.293C87.248,50.25 87.924,53.945 88.216,57.4C88.711,60.365 87.92,66.416 87.456,68.271C86.421,71.734 84.606,75.961 81.028,80.033C79.509,81.837 77.893,83.232 76.025,84.75C74.598,85.939 73.372,86.636 71.164,87.952C68.168,89.74 65.888,90.883 61.687,92.525C59.977,93.074 57.821,93.796 55.499,94.275C51,94.683 46.376,95.08 41.33,94.481C36.283,93.879 31.228,92.458 28.241,91.542C26.592,90.924 23.4,89.587 22.063,88.862C21.191,88.422 18.27,86.424 17.775,85.944C15.775,84.707 11.296,80.495 8.404,76.569C7.771,75.352 5.493,71.715 4.998,70.121C3.685,67.424 2.769,64.161 2.232,62.767C1.664,59.513 0.704,57.419 0.33,54.156C0.372,53.388 0.176,51.579 -0,50.578C0.254,48.343 -0.086,46.239 0.358,43.805C0.748,41.752 1.262,40.895 1.386,39.039C1.507,38.245 2.527,35.857 2.801,34.794C3.627,33.044 3.831,31.603 4.908,29.647C6.457,26.599 8.08,23.093 10.57,20.03C11.282,19.08 13.299,16.802 13.986,16.013C15.611,14.388 16.564,14.132 18.407,12.503C18.597,12.383 19.816,10.995 21.092,10.518C23.203,8.886 25.029,8.288 27.04,6.803C31.069,4.795 32.537,4.117 36.537,2.452C38.85,1.627 42.071,1.172 43.231,0.722C45.44,0.585 47.682,-0.119 50.004,0.02C52.611,-0.004 55.238,0.182 57.859,0.42C59.625,0.522 61.931,0.608 65.058,1.288Z" style="fill:rgb(207,51,17);fill-opacity:0.94;fill-rule:nonzero;"/>
</svg>
